packages/calcite-ui-icons/icons/location-referencing-dataset-32.svg

<?xml version="1.0" encoding="UTF-8"?><svg id="icons" xmlns="http://www.w3.org/2000/svg" viewBox="0 0 32 32"><defs><style>.cls-1{fill:none;}.cls-2{opacity:.25;}</style></defs><rect class="cls-1" width="32" height="32"/><path d="M18.5,3c-1.38074,0-2.5,1.11926-2.5,2.5,0,1.20941.85889,2.2179,2,2.44958v5.05042H6v9.05042c-1.14111.23169-2,1.24011-2,2.44958,0,1.38068,1.11926,2.5,2.5,2.5s2.5-1.11932,2.5-2.5c0-1.20947-.85889-2.2179-2-2.44958v-8.05042h12v-6.05042c1.14111-.23169,2-1.24017,2-2.44958,0-1.38074-1.11926-2.5-2.5-2.5ZM8,24.5c0,.82715-.67285,1.5-1.5,1.5s-1.5-.67285-1.5-1.5.67285-1.5,1.5-1.5,1.5.67285,1.5,1.5ZM18.5,7c-.82715,0-1.5-.67285-1.5-1.5s.67285-1.5,1.5-1.5,1.5.67285,1.5,1.5-.67285,1.5-1.5,1.5ZM26,24.11719v-6.1676c1.14111-.23169,2-1.24017,2-2.44958,0-1.38074-1.11926-2.5-2.5-2.5s-2.5,1.11926-2.5,2.5c0,1.20941.85889,2.2179,2,2.44958v6.14575c-1.13757.21179-2,1.20569-2,2.40466,0,1.35303,1.09686,2.45001,2.45001,2.45001s2.45001-1.09698,2.45001-2.45001c0-1.16333-.81281-2.13245-1.90002-2.38281ZM24,15.5c0-.82715.67285-1.5,1.5-1.5s1.5.67285,1.5,1.5-.67285,1.5-1.5,1.5-1.5-.67285-1.5-1.5ZM25.45001,27.96997c-.81061,0-1.47003-.65936-1.47003-1.46997s.65942-1.47003,1.47003-1.47003,1.46997.65942,1.46997,1.47003-.65936,1.46997-1.46997,1.46997Z"/><path class="cls-2" d="M1,1v30h30V1H1ZM2,2h4v6H2V2ZM20,30h-8v-6h8v6ZM20,23h-8v-4h8v4ZM30,13h-2.05829c.29297.28619.52844.62653.70721,1h1.35107v4h-2.0766c-.27148.26105-.57971.48438-.9234.64893v.35107h3v4h-3v.35107c.34369.16455.65192.38788.9234.64893h2.0766v6h-4v-.05054c-.46722.06769-.53278.06769-1,0v.05054h-4v-6h2.0766c.27148-.26105.57971-.48438.9234-.64893v-.35107h-3v-4h3v-.35107c-.34369-.16455-.65192-.38788-.9234-.64893h-11.0766v-3h-1v3h-3v1h3v11h-4v-2.05054c-.16473.02386-.3288.05054-.5.05054s-.33527-.02667-.5-.05054v2.05054H2v-11h3v-1h-3v-4h3v-1h-3v-4h4v3h1v-3h4v3h1v-3h5v-.35107c-.00006-.00006-.00018-.00006-.00024-.00012-.34821-.16675-.66833-.38202-.94147-.6488H7V2h18v6h-4.05829c-.27313.26678-.59326.48206-.94147.6488-.00006.00006-.00018.00006-.00024.00012v.35107h5v3.05054c.16473-.02386.3288-.05054.5-.05054s.33527.02667.5.05054v-3.05054h4v4ZM30,8h-4V2h4v6ZM20,13h3.05829c-.29297.28619-.52844.62653-.70721,1h-2.35107v-1Z"/></svg>

<svg xmlns="http://www.w3.org/2000/svg" viewBox="0 0 32 32"><path d="M0 0h32v32H0z" style="fill:none"/><path d="M18.5 3a2.5 2.5 0 0 0-.5 4.95V13H6v9.05a2.5 2.5 0 1 0 1 0V14h12V7.95A2.5 2.5 0 0 0 18.5 3M8 24.5c0 .827-.673 1.5-1.5 1.5S5 25.327 5 24.5 5.673 23 6.5 23s1.5.673 1.5 1.5M18.5 7c-.827 0-1.5-.673-1.5-1.5S17.673 4 18.5 4s1.5.673 1.5 1.5S19.327 7 18.5 7M26 24.117V17.95a2.5 2.5 0 1 0-1 0v6.145a2.448 2.448 0 0 0 .45 4.855 2.447 2.447 0 0 0 .55-4.833M24 15.5c0-.827.673-1.5 1.5-1.5s1.5.673 1.5 1.5-.673 1.5-1.5 1.5-1.5-.673-1.5-1.5m1.45 12.47c-.81 0-1.47-.66-1.47-1.47s.66-1.47 1.47-1.47 1.47.66 1.47 1.47-.66 1.47-1.47 1.47"/><path d="M1 1v30h30V1zm1 1h4v6H2zm18 28h-8v-6h8zm0-7h-8v-4h8zm10-10h-2.058c.293.286.528.627.707 1H30v4h-2.077a3.6 3.6 0 0 1-.923.649V19h3v4h-3v.351c.344.165.652.388.923.649H30v6h-4v-.05c-.467.067-.533.067-1 0V30h-4v-6h2.077a3.6 3.6 0 0 1 .923-.649V23h-3v-4h3v-.351a3.6 3.6 0 0 1-.923-.649H12v-3h-1v3H8v1h3v11H7v-2.05c-.165.023-.329.05-.5.05s-.335-.027-.5-.05V30H2V19h3v-1H2v-4h3v-1H2V9h4v3h1V9h4v3h1V9h5v-.351A3.5 3.5 0 0 1 16.058 8H7V2h18v6h-4.058a3.5 3.5 0 0 1-.942.649V9h5v3.05c.165-.023.329-.05.5-.05s.335.027.5.05V9h4zm0-5h-4V2h4zm-10 5h3.058a3.5 3.5 0 0 0-.707 1H20z" style="opacity:.25"/></svg>
